neru-dark-classic/22x22/actions/twitter-profile-symbolic.svg

<?xml version="1.0" encoding="UTF-8" standalone="no"?>
<svg
   xmlns:dc="http://purl.org/dc/elements/1.1/"
   xmlns:cc="http://creativecommons.org/ns#"
   xmlns:rdf="http://www.w3.org/1999/02/22-rdf-syntax-ns#"
   xmlns:svg="http://www.w3.org/2000/svg"
   xmlns="http://www.w3.org/2000/svg"
   xmlns:sodipodi="http://sodipodi.sourceforge.net/DTD/sodipodi-0.dtd"
   xmlns:inkscape="http://www.inkscape.org/namespaces/inkscape"
   width="22"
   height="22"
   viewBox="0 0 22 22"
   version="1.1"
   id="svg7"
   sodipodi:docname="twitter-profile-symbolic.svg"
   inkscape:version="0.92.1 r">
  <metadata
     id="metadata11">
    <rdf:RDF>
      <cc:Work
         rdf:about="">
        <dc:format>image/svg+xml</dc:format>
        <dc:type
           rdf:resource="http://purl.org/dc/dcmitype/StillImage" />
        <dc:title></dc:title>
      </cc:Work>
    </rdf:RDF>
  </metadata>
  <sodipodi:namedview
     pagecolor="#ffffff"
     bordercolor="#666666"
     borderopacity="1"
     objecttolerance="10"
     gridtolerance="10"
     guidetolerance="10"
     inkscape:pageopacity="0"
     inkscape:pageshadow="2"
     inkscape:window-width="769"
     inkscape:window-height="480"
     id="namedview9"
     showgrid="false"
     inkscape:zoom="10.727273"
     inkscape:cx="11"
     inkscape:cy="11"
     inkscape:window-x="0"
     inkscape:window-y="0"
     inkscape:window-maximized="0"
     inkscape:current-layer="svg7" />
  <defs
     id="defs3">
    <style
       type="text/css"
       id="current-color-scheme">
   .ColorScheme-Text { color:#d3dae3; } .ColorScheme-Highlight { color:#5294e2; }
  </style>
  </defs>
  <path
     style="fill:currentColor;opacity:1"
     class="ColorScheme-Text"
     transform="translate(3 3)"
     d="M 8.0097656 1.6894531 C 6.1777656 1.6894531 4.6849594 3.2416875 4.6308594 5.1796875 C 4.5858594 5.1912875 4.54234 5.211275 4.5 5.234375 C 4.0787 5.463935 3.9695525 6.1788669 4.2578125 6.8417969 C 4.4897125 7.3750969 4.9015906 7.7055325 5.2753906 7.6953125 C 5.5567706 9.4676125 6.6768656 10.789062 8.0097656 10.789062 C 8.0137656 10.789062 8.0174844 10.789083 8.0214844 10.789062 C 9.3543844 10.789062 10.474559 9.4676125 10.755859 7.6953125 C 11.129639 7.7055125 11.541508 7.3751069 11.773438 6.8417969 C 12.061697 6.1788769 11.95254 5.463975 11.53125 5.234375 C 11.48885 5.211275 11.445441 5.1912875 11.400391 5.1796875 C 11.346191 3.2416875 9.8534844 1.6894531 8.0214844 1.6894531 C 8.0174844 1.6894331 8.0137656 1.6894531 8.0097656 1.6894531 z M 10.394531 11.074219 C 10.105641 11.761869 9.1205125 12.277344 7.9453125 12.277344 C 6.7755125 12.277344 5.7996594 11.768888 5.5058594 11.085938 C 3.0367594 11.339348 1.2376844 11.959879 1.0214844 12.693359 C 1.0184844 12.700359 1.0234844 12.707844 1.0214844 12.714844 C 1.0144844 12.741244 1.0127656 12.764216 1.0097656 12.791016 C 1.0087656 12.803116 1 12.811819 1 12.824219 C 0.99991 12.828219 1 12.832038 1 12.835938 L 1 14.650391 C 1 14.844301 1.1557094 15 1.3496094 15 L 14.648438 15 C 14.842337 15 15 14.844291 15 14.650391 L 15 12.835938 C 15 12.827937 15.00035 12.8205 15 12.8125 C 14.998 12.77 14.979197 12.735169 14.966797 12.693359 C 14.746047 11.951029 12.908331 11.321519 10.394531 11.074219 z"
     id="path5" />
</svg>

<svg xmlns="http://www.w3.org/2000/svg" width="22" height="22" version="1.1" id="svg7"><defs id="defs3"><style type="text/css" id="current-color-scheme"></style></defs><path transform="translate(3 3)" d="M8.01 1.69c-1.832 0-3.325 1.552-3.38 3.49a.578.578 0 0 0-.13.054c-.421.23-.53.945-.242 1.608.232.533.644.864 1.017.853.282 1.773 1.402 3.094 2.735 3.094h.011c1.333 0 2.454-1.321 2.735-3.094.374.01.786-.32 1.017-.853.289-.663.18-1.378-.242-1.608a.579.579 0 0 0-.13-.054c-.055-1.938-1.548-3.49-3.38-3.49H8.01zm2.385 9.384c-.29.688-1.274 1.203-2.45 1.203-1.17 0-2.145-.508-2.44-1.191-2.468.253-4.267.874-4.484 1.607-.003.007.002.015 0 .022-.007.026-.008.05-.011.076-.001.012-.01.02-.01.033v1.826c0 .194.156.35.35.35h13.298a.35.35 0 0 0 .352-.35v-1.838c-.002-.042-.02-.077-.033-.119-.221-.742-2.059-1.371-4.572-1.619z" id="path5" fill="currentColor" opacity="1" color="#d3dae3"/></svg>
